X:694
%%etbk:tnset id:426,pos:4,rep:3x,ant:
%%etbk:wsite https://thesession.org/tunes/3859
%%etbk:color #ffccbf
%%etbk:pldat 2016-09-15T18:48,2016-09-11T16:58,2016-09-10T15:18,2016-09-09T18:59,2016-09-08T17:57,2016-09-07T17:32,2016-09-04T11:32,2016-09-03T10:29,2016-08-21T12:17,2016-08-12T17:29,2016-08-06T13:24,2016-08-02T16:26,2016-07-28T18:46,2016-07-26T16:43,2015-07-18T17:38,2015-06-06T14:51,2015-05-17T14:29,2015-05-05T16:16,2015-04-20T18:54,2015-04-19T11:23
T: The King's
Z: Piano Box Version by Martin Fleischmann
H: Created 2015-04-11 /  Last Modified 2016-08-02
R: reel
M: 4/4
L: 1/8
K: Ador
A,2 !4!EA, !5!FA,EA,|~A,2 !4!ED CA,A,!4!E|A,2 !4!EA, !4!FDEF|1!5!GE D!1!C !2!B,G,CB,:|2G2 DC B,G,G,d||
!3!^cA (3AAA !5!e!1!A!5!e!4!d|!3!^cA (3AAA BGBd|^cA (3AAA !3!e!5!aef|!5!g!3!ed!1!=c !2!BGBd|
^cA (3AAA eAed|^cAA=c  BGBd|!3!=c2 dc !2!B2 dB|!4!cA!3!B!1!G !4!GEDB,||


